X:44
T:Polska efter Olof Styrlander
R:sl\"angpolska
A:\"Osterg\"otland
Z:id:hn-sp-44
M:3/4
L:1/16
K:G
G2gf g2d2 B2G2 | G2gf g2d2 B2G2 | G2AB cdcB A2A2 | DFAF G8 :| 
|: DFAF DFAF DFAF | D2GA BcBA B2G2 | DFAF DFAF DFAF | 
D2GA BcBA B2G2 | G2e2 e2f2 f2g2 | gfed e2ef g4 | gece edBd dcAF | 
[1D2FA G4 G4 :| [2D2FA G4 g4 || 
<end>
<start>
